<?xml version="1.0" encoding="UTF-8"?>
<map version="1.0" orientation="orthogonal" renderorder="left-up" width="105" height="12" tilewidth="64" tileheight="64" nextobjectid="42">
 <imagelayer name="Background">
  <image source="long2.png"/>
 </imagelayer>
 <objectgroup name="obs">
  <object id="2" name="ob" x="512" y="384" width="64" height="64">
   <properties>
    <property name="Dx" value="0"/>
    <property name="Dy" value="-12"/>
   </properties>
   <ellipse/>
  </object>
  <object id="22" name="ob" x="768" y="320" width="64" height="64">
   <properties>
    <property name="Dx" value="-32"/>
    <property name="Dy" value="8"/>
   </properties>
   <ellipse/>
  </object>
  <object id="23" name="ob" x="1024" y="320" width="64" height="64">
   <properties>
    <property name="Dx" value="-24"/>
    <property name="Dy" value="4"/>
   </properties>
   <ellipse/>
  </object>
  <object id="24" name="ob" x="1280" y="320" width="64" height="64">
   <properties>
    <property name="Dx" value="-24"/>
    <property name="Dy" value="8"/>
   </properties>
   <ellipse/>
  </object>
  <object id="25" name="ob" x="2048" y="320" width="64" height="64">
   <properties>
    <property name="Dx" value="8"/>
    <property name="Dy" value="8"/>
   </properties>
   <ellipse/>
  </object>
  <object id="26" name="ob" x="2368" y="320" width="64" height="64">
   <properties>
    <property name="Dx" value="0"/>
    <property name="Dy" value="22"/>
   </properties>
   <ellipse/>
  </object>
  <object id="27" name="ob" x="2624" y="320" width="64" height="64">
   <properties>
    <property name="Dx" value="0"/>
    <property name="Dy" value="12"/>
   </properties>
   <ellipse/>
  </object>
  <object id="28" name="ob" x="3584" y="320" width="64" height="64">
   <properties>
    <property name="Dx" value="-6"/>
    <property name="Dy" value="0"/>
   </properties>
   <ellipse/>
  </object>
  <object id="29" name="ob" x="3712" y="320" width="64" height="64">
   <properties>
    <property name="Dx" value="32"/>
    <property name="Dy" value="8"/>
   </properties>
   <ellipse/>
  </object>
  <object id="30" name="ob" x="4032" y="320" width="64" height="64">
   <properties>
    <property name="Dx" value="-16"/>
    <property name="Dy" value="10"/>
   </properties>
   <ellipse/>
  </object>
  <object id="31" name="ob" x="4224" y="320" width="64" height="64">
   <properties>
    <property name="Dx" value="32"/>
    <property name="Dy" value="0"/>
   </properties>
   <ellipse/>
  </object>
  <object id="32" name="ob" x="2816" y="384" width="64" height="64">
   <properties>
    <property name="Dx" value="-32"/>
    <property name="Dy" value="-8"/>
   </properties>
   <ellipse/>
  </object>
  <object id="36" name="ob" x="5056" y="320" width="64" height="64">
   <properties>
    <property name="Dx" value="12"/>
    <property name="Dy" value="6"/>
   </properties>
   <ellipse/>
  </object>
  <object id="37" name="ob" x="5312" y="320" width="64" height="64">
   <properties>
    <property name="Dx" value="24"/>
    <property name="Dy" value="-8"/>
   </properties>
   <ellipse/>
  </object>
  <object id="38" name="ob" x="5504" y="320" width="64" height="64">
   <properties>
    <property name="Dx" value="0"/>
    <property name="Dy" value="-4"/>
   </properties>
   <ellipse/>
  </object>
  <object id="39" name="ob" x="5696" y="320" width="64" height="64">
   <properties>
    <property name="Dx" value="-28"/>
    <property name="Dy" value="0"/>
   </properties>
   <ellipse/>
  </object>
  <object id="41" name="ob" x="5952" y="320" width="64" height="64">
   <properties>
    <property name="Dx" value="4"/>
    <property name="Dy" value="-4"/>
    <property name="islast" value="true"/>
   </properties>
   <ellipse/>
  </object>
 </objectgroup>
</map>
